X: 25859
T: Matchmaker, The
R: jig
M: 6/8
K: Adorian
d|eAA BAG|EDE G2A|BGG AGE|GBd efg|
eAA BAG|EDE GBd|ege dBe|ABA A2:|
d|e2a age|edB BAB|GED G2A|BAB GBd|
[1 e2a age|edB BAB|GBd edB|ABA A2:|
[2 eAA Bcd|eaf ged|ege dBe|ABA A3||

